communes/5923.svg

<?xml version="1.0" encoding="UTF-8"?>
<svg version="1.0" viewBox="0 0 603 763" xmlns="http://www.w3.org/2000/svg" xmlns:cc="http://web.resource.org/cc/" xmlns:dc="http://purl.org/dc/elements/1.1/" xmlns:rdf="http://www.w3.org/1999/02/22-rdf-syntax-ns#" xmlns:xlink="http://www.w3.org/1999/xlink">
<metadata>
<rdf:RDF>
<cc:Work rdf:about="">
<dc:format>image/svg+xml</dc:format>
<dc:type rdf:resource="http://purl.org/dc/dcmitype/StillImage"/>
<dc:date>11-APR-2007</dc:date>
<dc:creator>
<cc:Agent>
<dc:title>Romain AVIOLAT (xens)</dc:title>
</cc:Agent>
</dc:creator>
<cc:license rdf:resource="http://creativecommons.org/licenses/GPL/2.0/"/>
<dc:coverage/>
<dc:description>Blason de la commune d'Oppens pour le Projet:Blasons de WIkipédia</dc:description>
<dc:subject>
<rdf:Bag>
<rdf:li>blason suisse commune d'Oppens projet blasons</rdf:li>
</rdf:Bag>
</dc:subject>
<dc:language>fr</dc:language>
<dc:title>blason de la commune d'Oppens</dc:title>
</cc:Work>
<cc:License rdf:about="http://creativecommons.org/licenses/GPL/2.0/">
<cc:permits rdf:resource="http://web.resource.org/cc/Reproduction"/>
<cc:permits rdf:resource="http://web.resource.org/cc/Distribution"/>
<cc:requires rdf:resource="http://web.resource.org/cc/Notice"/>
<cc:permits rdf:resource="http://web.resource.org/cc/DerivativeWorks"/>
<cc:requires rdf:resource="http://web.resource.org/cc/ShareAlike"/>
<cc:requires rdf:resource="http://web.resource.org/cc/SourceCode"/>
</cc:License>
</rdf:RDF>
</metadata>
<defs>
<radialGradient id="a" cx="858.04" cy="579.93" r="300" gradientTransform="matrix(1.215 1.5316e-24 1.4647e-23 1.2667 -839.19 -490.49)" gradientUnits="userSpaceOnUse">
<stop stop-color="#fff" stop-opacity=".31373" offset="0"/>
<stop stop-color="#fff" stop-opacity=".25098" offset=".19"/>
<stop stop-color="#6b6b6b" stop-opacity=".12549" offset=".6"/>
<stop stop-opacity=".12549" offset="1"/>
</radialGradient>
</defs>
<desc>Coat of Arms of Canton of Freiburg (Fribourg)</desc>
<g>
<path d="m1.5 460.37c0 166.31 134.31 301.13 300 301.13s300-134.82 300-301.13v-458.87l-600.01 0.08477 0.0049225 336.26 4.21e-5 2.875 0.0017516 119.65z" fill="#5ab532"/>
<path d="m1.5 1.5 0.53033 224h600l-0.53033-224h-600z" fill="#fff" stroke="#000" stroke-width="3"/>
<path d="m601.5 273.32-2e-5 80.244c-1.6164-0.47171-3.3053-0.71167-5-0.76909-44.583 0.24655-53.891 22.121-95.151 21.314-40.907-0.80702-55.437-25.891-101.52-26.364-46.785-0.47262-52.683 26.489-98.333 27.172-46.358 0.68278-48.655-27.891-98.333-27.172s-45.724 26.452-98.333 26.464-55.454-23.509-98.687-25.404c-1.5309-0.08235-3.0896-0.02316-4.6426 0.18412l0.01824-80.244c1.5216-0.17911 3.1431-0.41944 4.6244-0.33976 43.232 1.8945 46.078 25.416 98.687 25.404s48.655-25.745 98.333-26.464 51.976 27.854 98.333 27.172c45.651-0.68278 51.548-27.644 98.333-27.172 46.078 0.47262 60.609 25.557 101.52 26.364 41.26 0.80702 50.568-21.067 95.151-21.314 1.7051-0.00943 3.3685 0.51981 5 0.92469z" fill="#fff" stroke="#000" stroke-width="3"/>
<path d="m601.49 434.02 0.01155 26.352c0 18.238-1.6152 36.097-4.6986 53.458-44.572 0.26398-54.192 21.888-95.453 21.081-40.907-0.80702-55.437-25.891-101.52-26.364-46.785-0.47262-52.683 26.489-98.333 27.172-46.358 0.68278-48.655-27.891-98.333-27.172s-45.724 26.452-98.333 26.464-56.142-23.509-99.355-25.383c-2.6104-16.013-3.9781-32.475-3.9781-49.257l0.01127-31.155c1.5143-0.22367 3.1504-0.08945 4.6352-0.00958 43.232 1.8945 46.078 25.416 98.687 25.404s48.655-25.745 98.333-26.464 51.976 27.854 98.333 27.172c45.651-0.68278 51.548-27.644 98.333-27.172 46.078 0.47262 60.609 25.557 101.52 26.364 41.26 0.80702 50.568-21.067 95.151-21.314 1.6893-0.00934 4.9881-0.03095 4.9884 0.82213z" fill="#fff" fill-rule="evenodd" stroke="#000" stroke-linecap="round" stroke-linejoin="round" stroke-width="3"/>
<path d="m489.91 694.72c32.554-26.402 59.484-59.497 78.769-97.225-23.187 6.2143-36.488 18.414-67.335 17.81-40.907-0.80702-55.437-25.891-101.52-26.364-46.785-0.47262-52.683 26.489-98.333 27.172-46.358 0.68278-48.655-27.891-98.333-27.172s-45.724 26.452-98.333 26.464c-38.896 0.00894-50.715-12.658-71.63-20.133 19.54 39.051 47.286 73.255 80.96 100.32 43.309-2.7763 42.35-25.575 89.004-26.25 49.678-0.71905 51.976 27.854 98.333 27.172 45.651-0.68278 51.548-27.644 98.333-27.172 41.472 0.42538 57.488 20.723 90.081 25.378z" fill="#fff" fill-rule="evenodd" stroke="#000" stroke-linecap="round" stroke-linejoin="round" stroke-width="3"/>
<g transform="translate(874.29 8.2854)" fill-rule="evenodd">
<path d="m-632.79 162.04c23.325 14.921 48.379 27.868 73.301 40.965 36.598-27.664 44.361-33.765 51.069-43.163 3.8396-5.3792 2.6169-8.4071 2.7582-26.494l-0.08011-81.535c-16.971-13.299-37.287-30.556-58.209-43.935-4.0392-2.5829-5.3277-0.62797-8.8984 3.6851-19.239 21.425-19.109 14.776-67.155 36.135l1.9055 4.0823 5.0231 10.761 0.28615 99.498z"/>
<path d="m-628.82 158.47c21.787 13.872 41.196 24.286 64.474 36.461 33.684-26.968 41.337-33.614 48.353-41.601 4.0613-4.6234 2.1993-8.0561 2.6672-24.862 0.68707-24.673-0.32482-77.548-0.32482-77.548-15.852-12.364-30.828-24.406-50.121-37.844-3.6698-2.556-5.7264 0.41621-9.0616 4.4258-17.97 19.918-17.349 12.736-62.226 32.592l5.9717 12.299 0.26729 96.076z" fill="#fcef3c"/>
<path d="m-548.19 163c2.6538-1.281 4.3682-4.8857 4.6403-9.577 1.1232-19.371 0.82518-64.749 0.50965-93.26l-36.492-18.913-18.115 10.185c-2.114 26.275-1.1518 65.064 1.1192 87.95 0 0 23.73 16.195 38.014 21.971 4.6713 1.889 7.8176 2.8534 10.323 1.6438z"/>
<path d="m-550.97 159.29c2.1805-1.1815 3.5892-4.5061 3.8127-8.833 0.92284-17.866-0.32199-61.719-0.58124-88.015l-27.233-13.694-15.634 8.3938c-1.737 24.234-0.44638 57.509 1.4196 78.617-0.01602-0.03203 17.414 15.52 29.734 22.014 3.7287 1.9655 6.4233 2.6317 8.4822 1.5161z" fill="#f5f5f5"/>
</g>
</g>
<g>
<path d="m1.5 1.5v458.87c0 166.31 134.31 301.13 300 301.13 165.69 0 300-134.82 300-301.13v-458.87h-600z" fill="url(#a)"/>
<path d="m1.5 1.5v458.87c0 166.31 134.31 301.13 300 301.13 165.69 0 300-134.82 300-301.13v-458.87h-600z" fill="none" stroke="#000" stroke-width="3"/>
</g>
</svg>

<?xml version="1.0" encoding="UTF-8" standalone="no"?>
<svg
   xmlns:i="http://ns.adobe.com/AdobeIllustrator/10.0/"
   xmlns:dc="http://purl.org/dc/elements/1.1/"
   xmlns:cc="http://web.resource.org/cc/"
   xmlns:rdf="http://www.w3.org/1999/02/22-rdf-syntax-ns#"
   xmlns:svg="http://www.w3.org/2000/svg"
   xmlns="http://www.w3.org/2000/svg"
   xmlns:xlink="http://www.w3.org/1999/xlink"
   xmlns:sodipodi="http://sodipodi.sourceforge.net/DTD/sodipodi-0.dtd"
   xmlns:inkscape="http://www.inkscape.org/namespaces/inkscape"
   height="763"
   width="603"
   version="1.0"
   id="svg20"
   sodipodi:version="0.32"
   inkscape:version="0.45"
   sodipodi:docname="Oppens-coat_of_arms.svg"
   sodipodi:docbase="/home/xenon/Wikipedia/Oppens"
   inkscape:output_extension="org.inkscape.output.svg.inkscape"
   sodipodi:modified="true">
  <metadata
     id="metadata31">
    <rdf:RDF>
      <cc:Work
         rdf:about="">
        <dc:format>image/svg+xml</dc:format>
        <dc:type
           rdf:resource="http://purl.org/dc/dcmitype/StillImage" />
        <dc:date>11-APR-2007</dc:date>
        <dc:creator>
          <cc:Agent>
            <dc:title>Romain AVIOLAT (xens)</dc:title>
          </cc:Agent>
        </dc:creator>
        <cc:license
           rdf:resource="http://creativecommons.org/licenses/GPL/2.0/" />
        <dc:coverage />
        <dc:description>Blason de la commune d'Oppens pour le Projet:Blasons de WIkipédia</dc:description>
        <dc:subject>
          <rdf:Bag>
            <rdf:li>blason suisse commune d'Oppens projet blasons</rdf:li>
          </rdf:Bag>
        </dc:subject>
        <dc:language>fr</dc:language>
        <dc:title>blason de la commune d'Oppens</dc:title>
      </cc:Work>
      <cc:License
         rdf:about="http://creativecommons.org/licenses/GPL/2.0/">
        <cc:permits
           rdf:resource="http://web.resource.org/cc/Reproduction" />
        <cc:permits
           rdf:resource="http://web.resource.org/cc/Distribution" />
        <cc:requires
           rdf:resource="http://web.resource.org/cc/Notice" />
        <cc:permits
           rdf:resource="http://web.resource.org/cc/DerivativeWorks" />
        <cc:requires
           rdf:resource="http://web.resource.org/cc/ShareAlike" />
        <cc:requires
           rdf:resource="http://web.resource.org/cc/SourceCode" />
      </cc:License>
    </rdf:RDF>
  </metadata>
  <defs
     id="defs29">
    <linearGradient
       id="linearGradient3753">
      <stop
         style="stop-color:#040000;stop-opacity:1;"
         offset="0"
         id="stop3755" />
      <stop
         style="stop-color:#000000;stop-opacity:0;"
         offset="1"
         id="stop3757" />
    </linearGradient>
    <linearGradient
       id="linearGradient3338">
      <stop
         style="stop-color:#000000;stop-opacity:1;"
         offset="0"
         id="stop3340" />
      <stop
         style="stop-color:#e20909;stop-opacity:0;"
         offset="1"
         id="stop3342" />
    </linearGradient>
    <linearGradient
       id="linearGradient2893">
      <stop
         style="stop-color:#ffffff;stop-opacity:0.3137255;"
         offset="0"
         id="stop2895" />
      <stop
         id="stop2897"
         offset="0.19"
         style="stop-color:#ffffff;stop-opacity:0.25098041;" />
      <stop
         style="stop-color:#6b6b6b;stop-opacity:0.1254902;"
         offset="0.60000002"
         id="stop2901" />
      <stop
         style="stop-color:#000000;stop-opacity:0.1254902;"
         offset="1"
         id="stop2899" />
    </linearGradient>
    <linearGradient
       id="linearGradient2955">
      <stop
         style="stop-color:white;stop-opacity:0;"
         offset="0"
         id="stop2965" />
      <stop
         style="stop-color:black;stop-opacity:0.64583331;"
         offset="1"
         id="stop2959" />
    </linearGradient>
    <radialGradient
       inkscape:collect="always"
       xlink:href="#linearGradient2893"
       id="radialGradient3236"
       gradientUnits="userSpaceOnUse"
       gradientTransform="matrix(1.215027,1.531577e-24,1.464684e-23,1.266667,-839.1924,-490.4894)"
       cx="858.04236"
       cy="579.93323"
       fx="858.04236"
       fy="579.93323"
       r="300" />
    <foreignObject
       requiredExtensions="http://ns.adobe.com/AdobeIllustrator/10.0/"
       x="0"
       y="0"
       width="1"
       height="1"
       id="foreignObject1951">
      <i:pgfRef
         xlink:href="#adobe_illustrator_pgf" />
    </foreignObject>
    <foreignObject
       requiredExtensions="http://ns.adobe.com/AdobeIllustrator/10.0/"
       x="0"
       y="0"
       width="1"
       height="1"
       id="foreignObject3796">
      <i:pgfRef
         xlink:href="#adobe_illustrator_pgf" />
    </foreignObject>
    <foreignObject
       id="foreignObject3027"
       height="1"
       width="1"
       y="0"
       x="0"
       requiredExtensions="http://ns.adobe.com/AdobeIllustrator/10.0/">
      <i:pgfRef
         xlink:href="#adobe_illustrator_pgf" />
    </foreignObject>
    <foreignObject
       id="foreignObject3025"
       height="1"
       width="1"
       y="0"
       x="0"
       requiredExtensions="http://ns.adobe.com/AdobeIllustrator/10.0/">
      <i:pgfRef
         xlink:href="#adobe_illustrator_pgf" />
    </foreignObject>
    <radialGradient
       r="300"
       fy="579.93323"
       fx="858.04236"
       cy="579.93323"
       cx="858.04236"
       gradientTransform="matrix(1.215027,0,0,1.266667,-839.1924,-490.4894)"
       gradientUnits="userSpaceOnUse"
       id="radialGradient3023"
       xlink:href="#linearGradient2893"
       inkscape:collect="always" />
    <linearGradient
       id="linearGradient3017">
      <stop
         id="stop3019"
         offset="0"
         style="stop-color:white;stop-opacity:0;" />
      <stop
         id="stop3021"
         offset="1"
         style="stop-color:black;stop-opacity:0.64583331;" />
    </linearGradient>
    <linearGradient
       id="linearGradient3007">
      <stop
         id="stop3009"
         offset="0"
         style="stop-color:#ffffff;stop-opacity:0.3137255;" />
      <stop
         style="stop-color:#ffffff;stop-opacity:0.25098041;"
         offset="0.19"
         id="stop3011" />
      <stop
         id="stop3013"
         offset="0.60000002"
         style="stop-color:#6b6b6b;stop-opacity:0.1254902;" />
      <stop
         id="stop3015"
         offset="1"
         style="stop-color:#000000;stop-opacity:0.1254902;" />
    </linearGradient>
  </defs>
  <sodipodi:namedview
     inkscape:window-height="1025"
     inkscape:window-width="1680"
     inkscape:pageshadow="2"
     inkscape:pageopacity="0.0"
     guidetolerance="10.0"
     gridtolerance="10.0"
     objecttolerance="10.0"
     borderopacity="1.0"
     bordercolor="#666666"
     pagecolor="#ffffff"
     id="base"
     inkscape:zoom="0.5"
     inkscape:cx="553.73858"
     inkscape:cy="335.84128"
     inkscape:window-x="1280"
     inkscape:window-y="0"
     inkscape:current-layer="layer2"
     showgrid="true"
     showguides="true"
     inkscape:guide-bbox="true" />
  <desc
     id="desc22">Coat of Arms of Canton of Freiburg (Fribourg)</desc>
  <g
     inkscape:groupmode="layer"
     id="layer1"
     inkscape:label="Fond écu"
     style="opacity:1;display:inline"
     sodipodi:insensitive="true">
    <path
       style="fill:#5ab532;fill-opacity:1;stroke:none"
       id="path1968"
       d="M 1.5,460.368 C 1.5,626.679 135.814,761.5 301.5,761.5 C 467.186,761.5 601.5,626.679 601.5,460.368 L 601.5,1.5 L 1.4932838,1.5847697 L 1.4982063,337.84374 L 1.4982484,340.71874 L 1.5,460.368 z "
       sodipodi:nodetypes="cscccccc" />
    <path
       style="fill:#ffffff;fill-opacity:1;stroke:#000000;stroke-width:3;stroke-miterlimit:4;stroke-dasharray:none;stroke-opacity:1;display:inline"
       d="M 1.5,1.5 L 2.0303301,225.50492 L 602.03033,225.50492 L 601.5,1.5 L 1.5,1.5 z "
       id="path3235"
       sodipodi:nodetypes="ccccc" />
    <path
       id="path3233"
       style="fill:#ffffff;fill-opacity:1;stroke:#000000;stroke-width:3;stroke-miterlimit:4;stroke-opacity:1;display:inline"
       d="M 601.50002,273.3181 L 601.5,353.5625 C 599.88361,353.09079 598.1947,352.85083 596.5,352.79341 C 551.91693,353.03996 542.60898,374.91414 501.34864,374.10712 C 460.44185,373.3001 445.9114,348.21578 399.83331,347.74316 C 353.04812,347.27054 347.15058,374.23195 301.49997,374.91473 C 255.14225,375.59751 252.84482,347.02411 203.16663,347.74316 C 153.48844,348.46221 157.44234,374.19554 104.83331,374.20763 C 52.22428,374.21972 49.3789,350.69834 6.14645,348.80382 C 4.6155846,348.72147 3.0568597,348.78066 1.5038584,348.98794 L 1.5220988,268.74358 C 3.0436609,268.56447 4.6652347,268.32414 6.14645,268.40382 C 49.3789,270.29834 52.22428,293.81972 104.83331,293.80763 C 157.44234,293.79554 153.48844,268.06221 203.16663,267.34316 C 252.84482,266.62411 255.14225,295.19751 301.49997,294.51473 C 347.15058,293.83195 353.04812,266.87054 399.83331,267.34316 C 445.9114,267.81578 460.44185,292.9001 501.34864,293.70712 C 542.60898,294.51414 551.91693,272.63996 596.5,272.39341 C 598.20508,272.38398 599.86846,272.91322 601.50002,273.3181 z "
       sodipodi:nodetypes="ccccccssccccsscccsc" />
    <path
       id="path3225"
       style="fill:#ffffff;fill-opacity:1;fill-rule:evenodd;stroke:#000000;stroke-width:3;stroke-linecap:round;stroke-linejoin:round;stroke-miterlimit:4;stroke-opacity:1;display:inline"
       d="M 601.48845,434.01554 L 601.5,460.36794 C 601.5,478.60556 599.88483,496.46451 596.80137,513.82597 C 552.22943,514.08995 542.60898,535.71413 501.34864,534.90711 C 460.44185,534.10009 445.9114,509.01577 399.83331,508.54315 C 353.04812,508.07053 347.15058,535.03194 301.49997,535.71472 C 255.14225,536.3975 252.84482,507.8241 203.16663,508.54315 C 153.48844,509.2622 157.44234,534.99553 104.83331,535.00762 C 52.22428,535.01971 48.6914,511.49833 5.4780726,509.62502 C 2.8676565,493.61155 1.5,477.15007 1.5,460.36794 L 1.5112697,429.2134 C 3.0256094,428.98973 4.661634,429.12395 6.14645,429.20382 C 49.3789,431.09834 52.22428,454.61972 104.83331,454.60763 C 157.44234,454.59554 153.48844,428.86221 203.16663,428.14316 C 252.84482,427.42411 255.14225,455.99751 301.49997,455.31473 C 347.15058,454.63195 353.04812,427.67054 399.83331,428.14316 C 445.9114,428.61578 460.44185,453.7001 501.34864,454.50712 C 542.60898,455.31414 551.91693,433.43996 596.5,433.19341 C 598.18933,433.18407 601.48808,433.16246 601.48845,434.01554 z "
       sodipodi:nodetypes="ccccccssccccsscccss" />
    <path
       id="path3229"
       style="fill:#ffffff;fill-opacity:1;fill-rule:evenodd;stroke:#000000;stroke-width:3;stroke-linecap:round;stroke-linejoin:round;stroke-miterlimit:4;stroke-opacity:1;display:inline"
       d="M 489.91418,694.72157 C 522.46793,668.31989 549.39856,635.22476 568.68356,597.49692 C 545.49617,603.71124 532.19599,615.91046 501.34864,615.30711 C 460.44185,614.50009 445.9114,589.41577 399.83331,588.94315 C 353.04812,588.47053 347.15058,615.43194 301.49997,616.11472 C 255.14225,616.7975 252.84482,588.2241 203.16663,588.94315 C 153.48844,589.6622 157.44234,615.39553 104.83331,615.40762 C 65.937571,615.41656 54.11851,602.74919 33.203269,595.27486 C 52.743193,634.32616 80.489048,668.5295 114.16286,695.5935 C 157.47219,692.81722 156.51309,670.01843 203.16663,669.34316 C 252.84482,668.62411 255.14225,697.19751 301.49997,696.51473 C 347.15058,695.83195 353.04812,668.87054 399.83331,669.34316 C 441.30546,669.76854 457.32152,690.06654 489.91418,694.72157 z "
       sodipodi:nodetypes="cccccssccsccs" />
  </g>
  <g
     inkscape:groupmode="layer"
     id="layer2"
     inkscape:label="Meubles"
     style="opacity:1;display:inline"
     sodipodi:insensitive="true">
    <g
       style="opacity:1;display:inline"
       id="g3178"
       transform="translate(874.28969,8.28538)">
      <path
         sodipodi:nodetypes="ccsccsccccc"
         id="path3284"
         d="M -632.78527,162.03517 C -609.45993,176.95662 -584.40653,189.90316 -559.48465,203 C -522.88699,175.3357 -515.12362,169.23477 -508.4155,159.8368 C -504.57589,154.45757 -505.79861,151.42966 -505.65735,133.34326 L -505.73746,51.808664 C -522.70894,38.509192 -543.02446,21.252255 -563.94668,7.8734857 C -567.98593,5.2905767 -569.27442,7.2455147 -572.84512,11.558604 C -592.08403,32.983681 -591.95392,26.334117 -640,47.693186 L -638.0945,51.775527 L -633.07142,62.537007 L -632.78527,162.03517 z "
         style="opacity:1;fill:#000000;fill-opacity:1;fill-rule:evenodd;stroke:none;stroke-width:1px;stroke-linecap:butt;stroke-linejoin:miter;stroke-opacity:1;display:inline" />
      <path
         sodipodi:nodetypes="ccsscscccc"
         id="path3172"
         d="M -628.81738,158.47071 C -607.03022,172.34231 -587.62158,182.7566 -564.34317,194.93196 C -530.65892,167.9641 -523.00584,161.31755 -515.99009,153.33082 C -511.92879,148.70744 -513.79082,145.27468 -513.32284,128.46911 C -512.63577,103.79593 -513.64766,50.921259 -513.64766,50.921259 C -529.49997,38.55753 -544.4758,26.514777 -563.76831,13.077329 C -567.43806,10.521309 -569.49471,13.493542 -572.82995,17.503166 C -590.80016,37.420791 -590.17863,30.239081 -635.05634,50.09534 L -629.08467,62.394759 L -628.81738,158.47071 z "
         style="opacity:1;fill:#fcef3c;fill-opacity:1;fill-rule:evenodd;stroke:none;stroke-width:1px;stroke-linecap:butt;stroke-linejoin:miter;stroke-opacity:1;display:inline" />
      <path
         sodipodi:nodetypes="csccccss"
         id="path3288"
         d="M -548.19122,163 C -545.53741,161.71898 -543.82297,158.11431 -543.55096,153.42304 C -542.42781,134.05239 -542.72578,88.67387 -543.04131,60.16344 L -579.53293,41.25 L -597.64791,51.43508 C -599.76194,77.71018 -598.79972,116.49873 -596.52872,139.38496 C -596.52872,139.38496 -572.79901,155.57975 -558.51459,161.35618 C -553.84331,163.24518 -550.697,164.20957 -548.19122,163 z "
         style="opacity:1;fill:#000000;fill-opacity:1;fill-rule:evenodd;stroke:none;stroke-width:1px;stroke-linecap:butt;stroke-linejoin:miter;stroke-opacity:1;display:inline" />
      <path
         sodipodi:nodetypes="csccccss"
         id="path3176"
         d="M -550.96778,159.2916 C -548.78728,158.1101 -547.37861,154.78547 -547.15512,150.45865 C -546.23228,132.59285 -547.47711,88.73965 -547.73636,62.444111 L -574.96963,48.75 L -590.60377,57.143831 C -592.34076,81.377701 -591.05015,114.65288 -589.18419,135.76114 C -589.20021,135.72911 -571.77002,151.28122 -559.44995,157.77549 C -555.72122,159.74101 -553.02665,160.4072 -550.96778,159.2916 z "
         style="opacity:1;fill:#f5f5f5;fill-opacity:1;fill-rule:evenodd;stroke:none;stroke-width:1px;stroke-linecap:butt;stroke-linejoin:miter;stroke-opacity:1;display:inline" />
    </g>
  </g>
  <g
     inkscape:groupmode="layer"
     id="layer3"
     inkscape:label="Reflet final"
     style="display:inline"
     sodipodi:insensitive="true">
    <path
       style="fill:url(#radialGradient3236);fill-opacity:1"
       d="M 1.5,1.5 L 1.5,460.3679 C 1.5,626.67854 135.81454,761.5 301.49993,761.5 C 467.1854,761.5 601.5,626.67854 601.5,460.3679 L 601.5,1.5 L 1.5,1.5 z "
       id="path2346" />
  </g>
  <g
     inkscape:groupmode="layer"
     id="layer4"
     inkscape:label="Contour final"
     style="display:inline"
     sodipodi:insensitive="true">
    <path
       style="fill:none;fill-opacity:1;stroke:#000000;stroke-width:3;stroke-miterlimit:4;stroke-dasharray:none;stroke-opacity:1"
       d="M 1.5,1.5 L 1.5,460.36794 C 1.5,626.67854 135.81454,761.5 301.49993,761.5 C 467.1854,761.5 601.5,626.67854 601.5,460.36794 L 601.5,1.5 L 1.5,1.5 z "
       id="path3239" />
  </g>
</svg>
